packages/icons/src/components/Icon/assets/default-outline/shield.svg

<svg width="20" height="20" viewBox="0 0 20 20" fill="none" xmlns="http://www.w3.org/2000/svg">
<path d="M16.2449 8.2178C16.2449 7.46498 16.1452 6.73636 15.9636 6.04202C13.7019 5.94297 11.6344 5.09745 9.99976 3.7471C8.36483 5.0976 6.29713 5.94329 4.03491 6.04202C3.85338 6.73624 3.75563 7.46511 3.75562 8.2178C3.75562 12.1449 6.39648 15.4549 9.99976 16.4707C13.6033 15.4551 16.2449 12.145 16.2449 8.2178ZM17.7449 8.2178C17.7449 12.9137 14.5328 16.858 10.1873 17.9766C10.0647 18.0081 9.93581 18.0081 9.81323 17.9766C5.4676 16.8581 2.25562 12.9138 2.25562 8.2178C2.25563 7.11925 2.4315 6.06013 2.75757 5.06839L2.80444 4.95706C2.93326 4.70879 3.19287 4.54933 3.47925 4.55276C3.51549 4.55321 3.55227 4.55374 3.58862 4.55374C5.87269 4.5537 7.94662 3.6612 9.48413 2.20511L9.59937 2.11526C9.88367 1.93546 10.2622 1.9657 10.5154 2.20511C12.0529 3.66123 14.1277 4.55374 16.4119 4.55374C16.4481 4.55374 16.4842 4.55321 16.5203 4.55276C16.8475 4.5487 17.1396 4.75753 17.2419 5.06839C17.568 6.06013 17.7449 7.11925 17.7449 8.2178Z" />
</svg>

<svg xmlns="http://www.w3.org/2000/svg" width="20" height="20" fill="none" viewBox="0 0 20 20">
    <path d="M16.245 8.218c0-.753-.1-1.482-.281-2.176A10.03 10.03 0 0 1 10 3.747a10.03 10.03 0 0 1-5.965 2.295A8.58 8.58 0 0 0 10 16.471c3.603-1.016 6.245-4.326 6.245-8.253m1.5 0c0 4.696-3.212 8.64-7.558 9.759a.75.75 0 0 1-.374 0c-4.345-1.119-7.557-5.063-7.557-9.76 0-1.098.176-2.157.502-3.149l.046-.11a.75.75 0 0 1 .675-.405h.11a8.54 8.54 0 0 0 5.895-2.348l.115-.09a.75.75 0 0 1 .916.09 8.55 8.55 0 0 0 5.897 2.349l.108-.001a.75.75 0 0 1 .722.515c.326.992.503 2.051.503 3.15"/>
</svg>
